_assets/images/icon-soundcloud.svg

<svg fill="none" height="24" viewBox="0 0 55 24" width="55" xmlns="http://www.w3.org/2000/svg"><path d="m2.66894 12.4518c-.11812 0-.21507.095-.22995.2261l-.54425 4.9624.54425 4.8528c.01488.1288.11183.2238.22995.2238.11611 0 .21106-.0927.22994-.2238l.61604-4.8528-.61604-4.9647c-.01916-.1308-.11411-.2238-.22994-.2238zm-2.042317 1.9021c-.116116 0-.206777.0887-.221649.2152l-.404974 3.0712.404974 3.0166c.014872.1262.105533.2152.221649.2152.111825 0 .202486-.089.221362-.2152l.476755-3.0166-.476755-3.0712c-.018876-.1268-.109537-.2152-.221362-.2152zm4.211037-2.875c-.14557 0-.26168.1139-.27656.2721l-.51479 5.8893.51479 5.6718c.01488.1585.13099.2721.27656.2721.14329 0 .2594-.1136.27857-.2698l.58429-5.6741-.58429-5.8893c-.01917-.1582-.13528-.2721-.27857-.2721zm2.18761-.2069c-.17103 0-.31003.1371-.3229.3188l-.48734 6.0498.48734 5.8535c.01259.1814.15187.3182.3229.3182.17102 0 .31002-.1371.32489-.3182l.55312-5.8535-.55312-6.0518c-.01459-.1797-.15387-.3168-.32489-.3168zm2.57598.7535c-.01258-.2069-.17274-.3632-.36922-.3632-.20049 0-.35864.1563-.37123.3675l-.45988 5.6105.45988 5.9019c.01259.2086.17103.3674.37123.3674.19648 0 .35664-.1588.36922-.3674l.52335-5.9019zm1.85475-3.9283c-.2237 0-.4073.18141-.4179.41577l-.4324 9.13163.4324 5.8996c.0106.2303.1942.4137.4179.4137.2193 0 .4029-.1842.4175-.416v.0023l.4874-5.8996-.4874-9.13363c-.0149-.23207-.1982-.41377-.4175-.41377zm2.2064-2.10464c-.2511 0-.4556.20488-.4661.46242l-.403 11.22142.403 5.8638c.0105.2555.215.4598.4661.4598.2468 0 .4536-.2046.4642-.4621v.0023l.4579-5.8638-.4579-11.22142c-.0106-.25754-.2171-.46242-.4642-.46242zm2.2935-1.01297c-.2786 0-.5043.22377-.5126.51078l-.3778 12.15623.3778 5.8023c.0083.2827.2343.5067.5126.5067.2742 0 .4999-.2237.5105-.5084v.0045l.4238-5.8051-.4238-12.15623c-.0106-.28701-.2363-.51078-.5105-.51078zm2.8353.1013c-.0105-.31248-.2554-.55743-.5591-.55743-.306 0-.5528.24495-.5591.55743l-.3501 12.56601.3501 5.7688c.0039.3063.2529.5528.5591.5534.3037 0 .5486-.2447.5591-.5571l.3924-5.7648zm1.7343-.28301c-.3311 0-.5991.26612-.6054.60378l-.3209 12.24494.3209 5.7141c.0063.3357.2743.6021.6054.6021.3312 0 .5972-.2664.6078-.6058v.006l.3586-5.7161-.3586-12.24495c-.0109-.33795-.2766-.60407-.6078-.60407zm2.3123.40119c-.3586 0-.6455.287-.654.65213l-.2912 11.7971.2929 5.6764c.0063.3611.2931.6481.6518.6481.3586 0 .6477-.287.654-.6521v.0046l.3289-5.6761-.3289-11.79943c-.0022-.35969-.294-.65024-.6535-.6507zm2.7173-2.17017c-.1143-.07643-.2486-.11753-.3861-.11818-.1393 0-.27.04207-.3798.11389-.1976.1292-.318.34841-.3209.5846l-.0043.13306-.2617 13.90373c0 .0083.2657 5.6426.2657 5.6426v.0229c.0086.1588.0675.3039.1648.4181.1314.1612.328.2551.5359.2561.1899 0 .363-.0804.4894-.2072.1264-.1267.2067-.2999.211-.4922l.0295-.5594.266-5.0786-.2955-14.03909c-.0045-.23292-.1215-.44922-.314-.58031zm2.314-1.32974c-.2681-.16426-.6111-.13868-.852.06353-.1726.1409-.2738.35116-.2762.57401l-.002.07812-.3055 15.23608.1562 2.816.1518 2.7419c.0043.4052.3398.7411.7465.7411.4075 0 .743-.3359.749-.7471v.006l.3312-5.5579-.3312-15.3142c-.0049-.26164-.1438-.50241-.3678-.63754zm20.5747 8.70324c-.9306 0-1.8186.1877-2.6286.5277-.5402-6.12564-5.6753-10.9301-11.9367-10.9301-1.4867.00168928-2.9605.276466-4.348.810664-.5128.198306-.6478.403186-.6538.800076v21.57486c.006.4158.3283.7389.7339.7789.0168.0023 18.8335 0 18.8335 0 3.7532 0 6.7936-3.008 6.7936-6.7631-.0002-3.7552-3.0407-6.799-6.7939-6.799z" fill="#fff"/></svg>

<svg width="55" height="24" viewBox="0 0 55 24" fill="none" xmlns="http://www.w3.org/2000/svg">
<path d="M2.66894 12.4518C2.55082 12.4518 2.45387 12.5468 2.43899 12.6779L1.89474 17.6403L2.43899 22.4931C2.45387 22.6219 2.55082 22.7169 2.66894 22.7169C2.78505 22.7169 2.88 22.6242 2.89888 22.4931L3.51492 17.6403L2.89888 12.6756C2.87972 12.5448 2.78477 12.4518 2.66894 12.4518ZM0.626623 14.3539C0.510507 14.3539 0.419846 14.4426 0.404974 14.5691L0 17.6403L0.404974 20.6569C0.419846 20.7831 0.510507 20.8721 0.626623 20.8721C0.738448 20.8721 0.829109 20.7831 0.847985 20.6569L1.32474 17.6403L0.847985 14.5691C0.829109 14.4423 0.738448 14.3539 0.626623 14.3539ZM4.83766 11.4789C4.69209 11.4789 4.57598 11.5928 4.5611 11.751L4.04631 17.6403L4.5611 23.3121C4.57598 23.4706 4.69209 23.5842 4.83766 23.5842C4.98095 23.5842 5.09706 23.4706 5.11623 23.3144L5.70052 17.6403L5.11623 11.751C5.09706 11.5928 4.98095 11.4789 4.83766 11.4789ZM7.02527 11.272C6.85424 11.272 6.71524 11.4091 6.70237 11.5908L6.21503 17.6406L6.70237 23.4941C6.71496 23.6755 6.85424 23.8123 7.02527 23.8123C7.19629 23.8123 7.33529 23.6752 7.35016 23.4941L7.90328 17.6406L7.35016 11.5888C7.33557 11.4091 7.19629 11.272 7.02527 11.272ZM9.60125 12.0255C9.58867 11.8186 9.42851 11.6623 9.23203 11.6623C9.03154 11.6623 8.87339 11.8186 8.8608 12.0298L8.40092 17.6403L8.8608 23.5422C8.87339 23.7508 9.03183 23.9096 9.23203 23.9096C9.42851 23.9096 9.58867 23.7508 9.60125 23.5422L10.1246 17.6403L9.60125 12.0255ZM11.456 8.0972C11.2323 8.0972 11.0487 8.27861 11.0381 8.51297L10.6057 17.6446L11.0381 23.5442C11.0487 23.7745 11.2323 23.9579 11.456 23.9579C11.6753 23.9579 11.8589 23.7737 11.8735 23.5419V23.5442L12.3609 17.6446L11.8735 8.51097C11.8586 8.2789 11.6753 8.0972 11.456 8.0972ZM13.6624 5.99256C13.4113 5.99256 13.2068 6.19744 13.1963 6.45498L12.7933 17.6764L13.1963 23.5402C13.2068 23.7957 13.4113 24 13.6624 24C13.9092 24 14.116 23.7954 14.1266 23.5379V23.5402L14.5845 17.6764L14.1266 6.45498C14.116 6.19744 13.9095 5.99256 13.6624 5.99256ZM15.9559 4.97959C15.6773 4.97959 15.4516 5.20336 15.4433 5.49037L15.0655 17.6466L15.4433 23.4489C15.4516 23.7316 15.6776 23.9556 15.9559 23.9556C16.2301 23.9556 16.4558 23.7319 16.4664 23.4472V23.4517L16.8902 17.6466L16.4664 5.49037C16.4558 5.20336 16.2301 4.97959 15.9559 4.97959ZM18.7912 5.08089C18.7807 4.76841 18.5358 4.52346 18.2321 4.52346C17.9261 4.52346 17.6793 4.76841 17.673 5.08089L17.3229 17.6469L17.673 23.4157C17.6769 23.722 17.9259 23.9685 18.2321 23.9691C18.5358 23.9691 18.7807 23.7244 18.7912 23.412L19.1836 17.6472L18.7912 5.08089ZM20.5255 4.79788C20.1944 4.79788 19.9264 5.064 19.9201 5.40166L19.5992 17.6466L19.9201 23.3607C19.9264 23.6964 20.1944 23.9628 20.5255 23.9628C20.8567 23.9628 21.1227 23.6964 21.1333 23.357V23.363L21.4919 17.6469L21.1333 5.40195C21.1224 5.064 20.8567 4.79788 20.5255 4.79788ZM22.8378 5.19907C22.4792 5.19907 22.1923 5.48607 22.1838 5.8512L21.8926 17.6483L22.1855 23.3247C22.1918 23.6858 22.4786 23.9728 22.8373 23.9728C23.1959 23.9728 23.485 23.6858 23.4913 23.3207V23.3253L23.8202 17.6492L23.4913 5.84977C23.4891 5.49008 23.1973 5.19953 22.8378 5.19907ZM25.5551 3.0289C25.4408 2.95247 25.3065 2.91137 25.169 2.91072C25.0297 2.91072 24.899 2.95279 24.7892 3.02461C24.5916 3.15381 24.4712 3.37302 24.4683 3.60921L24.464 3.74227L24.2023 17.646C24.2023 17.6543 24.468 23.2886 24.468 23.2886V23.3115C24.4766 23.4703 24.5355 23.6154 24.6328 23.7296C24.7642 23.8908 24.9608 23.9847 25.1687 23.9857C25.3586 23.9857 25.5317 23.9053 25.6581 23.7785C25.7845 23.6518 25.8648 23.4786 25.8691 23.2863L25.8986 22.7269L26.1646 17.6483L25.8691 3.60921C25.8646 3.37629 25.7476 3.15999 25.5551 3.0289ZM27.8691 1.69916C27.601 1.5349 27.258 1.56048 27.0171 1.76269C26.8445 1.90359 26.7433 2.11385 26.7409 2.3367L26.7389 2.41482L26.4334 17.6509L26.5896 20.4669L26.7414 23.2088C26.7457 23.614 27.0812 23.9499 27.4879 23.9499C27.8954 23.9499 28.2309 23.614 28.2369 23.2028V23.2088L28.5681 17.6509L28.2369 2.3367C28.232 2.07506 28.0931 1.83429 27.8691 1.69916ZM48.4438 10.4024C47.5132 10.4024 46.6252 10.5901 45.8152 10.9301C45.275 4.80446 40.1399 0 33.8785 0C32.3918 0.00168928 30.918 0.276466 29.5305 0.810664C29.0177 1.00897 28.8827 1.21385 28.8767 1.61074V23.1856C28.8827 23.6014 29.205 23.9245 29.6106 23.9645C29.6274 23.9668 48.4441 23.9645 48.4441 23.9645C52.1973 23.9645 55.2377 20.9565 55.2377 17.2014C55.2375 13.4462 52.197 10.4024 48.4438 10.4024Z" fill="white"/>
</svg>
